extension/public/logo.svg

<svg viewBox="0 0 32 32" xmlns="http://www.w3.org/2000/svg" fill="none">
  <style>
    :root {
      --logo-bg: #0f172a;
      --logo-fg: #ffffff;
    }
    html.dark :root {
      --logo-bg: #f8fafc;
      --logo-fg: #0f172a;
    }
    @media (prefers-color-scheme: dark) {
      :root {
        --logo-bg: #f8fafc;
        --logo-fg: #0f172a;
      }
    }
    .logo-bg {
      fill: var(--logo-bg);
    }
    .logo-fg {
      fill: var(--logo-fg);
    }
  </style>
  <rect width="32" height="32" x="0" y="0" rx="8" class="logo-bg" />
  <path d="M20.9615 9.72528L24.9615 23.7253L23.0385 24.2747L19.0385 10.2747L20.9615 9.72528ZM19.0632 10.2885L19.0385 10.2747C18.8846 9.73627 19.1868 9.19232 19.7253 9.03848C20.2637 8.88463 20.8077 9.18683 20.9615 9.72528L20.9478 9.75L19.0632 10.2885ZM24.9368 23.7115L24.9615 23.7253C25.1154 24.2637 24.8132 24.8077 24.2747 24.9615C23.7363 25.1154 23.1923 24.8132 23.0385 24.2747L23.0522 24.25L24.9368 23.7115Z" class="logo-fg" fill-rule="nonzero" />
  <path d="M17 10L17 24L15 24L15 10L17 10ZM15.02 10.02L15 10C15 9.44 15.44 9 16 9C16.56 9 17 9.44 17 10L16.98 10.02L15.02 10.02ZM16.98 23.98L17 24C17 24.56 16.56 25 16 25C15.44 25 15 24.56 15 24L15.02 23.98L16.98 23.98Z" class="logo-fg" fill-rule="nonzero" />
  <path d="M13 12L13 24L11 24L11 12L13 12ZM11.02 12.02L11 12C11 11.44 11.44 11 12 11C12.56 11 13 11.44 13 12L12.98 12.02L11.02 12.02ZM12.98 23.98L13 24C13 24.56 12.56 25 12 25C11.44 25 11 24.56 11 24L11.02 23.98L12.98 23.98Z" class="logo-fg" fill-rule="nonzero" />
  <path d="M9 8L9 24L7 24L7 8L9 8ZM7.02 8.02L7 8C7 7.44 7.44 7 8 7C8.56 7 9 7.44 9 8L8.98 8.02L7.02 8.02ZM8.98 23.98L9 24C9 24.56 8.56 25 8 25C7.44 25 7 24.56 7 24L7.02 23.98L8.98 23.98Z" class="logo-fg" fill-rule="nonzero" />
</svg>

<svg viewBox="0 0 32 32" xmlns="http://www.w3.org/2000/svg"><style>:root{--logo-bg:#0f172a;--logo-fg:#fff}html.dark :root{--logo-bg:#f8fafc;--logo-fg:#0f172a}@media(prefers-color-scheme:dark){:root{--logo-bg:#f8fafc;--logo-fg:#0f172a}}.logo-bg{fill:var(--logo-bg)}.logo-fg{fill:var(--logo-fg)}</style><rect width="32" height="32" rx="8" class="logo-bg"/><path d="M20.96 9.73l4 14-1.92.55-4-14 1.92-.55zm-1.9.56l-.02-.02c-.16-.54.14-1.08.69-1.24.54-.15 1.08.15 1.24.69l-.02.02-1.89.55zm5.88 13.42l.02.02c.16.54-.14 1.08-.69 1.24-.54.15-1.08-.15-1.24-.69l.02-.02 1.89-.55z" class="logo-fg" fill-rule="nonzero"/><path d="M17 10v14h-2V10h2zm-1.98.02L15 10c0-.56.44-1 1-1s1 .44 1 1l-.02.02h-1.96zm1.96 13.96L17 24c0 .56-.44 1-1 1s-1-.44-1-1l.02-.02h1.96z" class="logo-fg" fill-rule="nonzero"/><path d="M13 12v12h-2V12h2zm-1.98.02L11 12c0-.56.44-1 1-1s1 .44 1 1l-.02.02h-1.96zm1.96 11.96L13 24c0 .56-.44 1-1 1s-1-.44-1-1l.02-.02h1.96z" class="logo-fg" fill-rule="nonzero"/><path d="M9 8v16H7V8h2zm-1.98.02L7 8c0-.56.44-1 1-1s1 .44 1 1l-.02.02H7.02zm1.96 15.96L9 24c0 .56-.44 1-1 1s-1-.44-1-1l.02-.02h1.96z" class="logo-fg" fill-rule="nonzero"/></svg>
